!!!!SEGMENT: pl-cz--iii-592--003_rygall-ignacy--applaudite-jubilate-aria-annus-desideratus.krn
!!!cenid: 17xx:1097
!!!COM: Rygall, Ignacy
!!!COM-rismID: pe30110281
!!!CDT: <1750->1799
!!!CNT:
!!!OPR: Applaudite jubilate
!!!OTL: Aria - Annus desideratus
!!!OMV: 003
!!!PDT:
!!!AGN:
!!!SMS-siglum: PL-CZ
!!!SMS-shelfmark: III-592
!!!SMS-shelfwork: 001-003 M
!!!SMS-variant:
!!!SMS-altvar:
!!!NIFC-rismSourceID: 300001121
!!!NIFC-rismChildID: 300001121
!!!NIFC-islandoraID: pl-cz:39438
!!!URL-pdf-islandora: https://repozytorium.nifc.pl/islandora/object/pl-cz%3A39438/datastream/PDF/view
!!!URL-scan:
!!!ONB-nifc: UWAGA: części Applaudite jubilate: Euntre, Basso solo – Applaudite jubilate, Aria - Annus desideratus (Allegro molto), Basso solo – Urget filialis (Adagio), Tempo primo – Annus desideratus, Recitativo – Roboent ergo, Coro – Vivat Provincialis Wiktor
!!!OMD: allo molto
!!!AIN: 1 bass 2 cor 2 oboe 1 organ 2 soprn 1 timpa 2 violn
!!!key: D
**kern	**dynam	**kern	**dynam	**kern	**dynam	**kern	**text	**kern	**kern	**kern	**dynam	**kern	**kern	**kern	**kern
*part11	*part11	*part10	*part10	*part9	*part9	*part8	*part8	*part7	*part6	*part5	*part5	*part4	*part3	*part2	*part1
*staff11	*	*staff10	*	*staff9	*	*staff8	*staff8	*staff7	*staff6	*staff5	*	*staff4	*staff3	*staff2	*staff1
*I"Baſso	*	*I"Violino Secundo.	*	*I"Violino Primo	*	*I"Baſso Solo	*	*I"Canto IIdo	*I"Canto 1mo	*I"Tympano	*	*I"Cornu 2do in D.	*I"Cornu 1mo in D	*I"Oboe IIdo	*I"Oboe 1mo
*I'org (=b)	*	*I'vl 2	*	*I'vl 1	*	*I'B	*	*I'S 2	*I'S 1	*I'timp	*	*I'cor 2	*I'cor 1	*I'ob 2	*I'ob 1
*Iorgan	*	*Ivioln	*	*Ivioln	*	*Ibass	*	*Isoprn	*Isoprn	*Itimpa	*	*Icor	*Icor	*Ioboe	*Ioboe
*ICklav	*	*ICstr	*	*ICstr	*	*ICvox	*	*ICvox	*ICvox	*ICidio	*	*ICbras	*ICbras	*ICww	*ICww
*clefF4	*	*clefG2	*	*clefG2	*	*clefF4	*	*clefC1	*clefC1	*clefF4	*	*clefG2	*clefG2	*clefG2	*clefG2
*	*	*	*	*	*	*	*	*	*	*	*	*ITrd6c10	*ITrd6c10	*	*
*k[f#c#]	*	*k[f#c#]	*	*k[f#c#]	*	*k[f#c#]	*	*k[f#c#]	*k[f#c#]	*k[f#c#]	*	*k[f#c#]	*k[f#c#]	*k[f#c#]	*k[f#c#]
*D:	*	*D:	*	*D:	*	*D:	*	*D:	*D:	*D:	*	*D:	*D:	*D:	*D:
*M4/4	*	*M4/4	*	*M4/4	*	*M4/4	*	*M4/4	*M4/4	*M4/4	*	*M4/4	*M4/4	*M4/4	*M4/4
*met(c)	*	*met(c)	*	*met(c)	*	*met(c)	*	*met(c)	*met(c)	*met(c)	*	*met(c)	*met(c)	*met(c)	*met(c)
=1	=1	=1	=1	=1	=1	=1	=1	=1	=1	=1	=1	=1	=1	=1	=1
!LO:TX:a:t=allo molto	!	!LO:TX:a:t=allo molto	!	!LO:TX:a:t=allo molto	!	!LO:TX:a:t=allo molto	!	!LO:TX:t=P:problem=brak części w głosie	!LO:TX:t=P:problem=brak części w głosie	!LO:TX:a:t=allo molto	!	!LO:TX:a:t=allo molto	!LO:TX:a:t=allo molto	!LO:TX:a:t=Allo molto	!LO:TX:a:t=allo vivace
4d\	.	4dd\	.	4dd\	.	00r	.	1ryy	1ryy	4Rb\	.	4d\	4d\	4dd\	4dd\
8d\L	.	8dd\L	.	8dd\L	.	.	.	.	.	8Rb\L	.	8d\L	8d\L	8dd\L	8dd\L
8d\J	.	8dd\J	.	8dd\J	.	.	.	.	.	8Rb\J	.	8d\J	8d\J	8dd\J	8dd\J
4d\	.	4dd\	.	4dd\	.	.	.	.	.	4Rb\	.	4d\	4d\	4dd\	4dd\
4D\	.	4d/	.	4d/	.	.	.	.	.	4Rb\	.	4D/	4D/	4d/	4d/
=2	=2	=2	=2	=2	=2	=2	=2	=2	=2	=2	=2	=2	=2	=2	=2
8d\L	.	8dd\L	.	8dd\L	.	.	.	1ryy	1ryy	8Rb\L	.	8d\L	8d\L	8dd\L	8dd\L
16d\L	.	16dd\L	.	16dd\L	.	.	.	.	.	16Rb\L	.	16d\L	16d\L	16dd\L	16dd\L
16d\JJ	.	16dd\JJ	.	16dd\JJ	.	.	.	.	.	16Rb\JJ	.	16d\JJ	16d\JJ	16dd\JJ	16dd\JJ
8d\L	.	8dd\L	.	8dd\L	.	.	.	.	.	8Rb\L	.	8d\L	8d\L	8dd\L	8dd\L
16d\L	.	16dd\L	.	16dd\L	.	.	.	.	.	16Rb\L	.	16d\L	16d\L	16dd\L	16dd\L
16d\JJ	.	16dd\JJ	.	16dd\JJ	.	.	.	.	.	16Rb\JJ	.	16d\JJ	16d\JJ	16dd\JJ	16dd\JJ
4d\	.	4dd\	.	4dd\	.	.	.	.	.	4Rb\	.	4d\	4d\	4dd\	4dd\
8D\L	.	8d/L	.	8d|</L	.	.	.	.	.	4Rb\	.	4D/	4D/	4d/	4d/
8F#\J	.	8f#/J	.	8f#|</J	.	.	.	.	.	.	.	.	.	.	.
=3	=3	=3	=3	=3	=3	=3	=3	=3	=3	=3	=3	=3	=3	=3	=3
8G\L	.	8g/L	.	8g|</L	.	.	.	1ryy	1ryy	2r	.	1r	1r	1r	1r
8A\	.	8a/	.	8a|</	.	.	.	.	.	.	.	.	.	.	.
8B\	.	8b/	.	8b|</	.	.	.	.	.	.	.	.	.	.	.
8c#\J	.	8cc#/J	.	8cc#|</J	.	.	.	.	.	.	.	.	.	.	.
8d\L	.	8dd/L	.	8dd|>\L	.	.	.	.	.	4r	.	.	.	.	.
8A\	.	8a/	.	8a|>\	.	.	.	.	.	.	.	.	.	.	.
8B\	.	8b/	.	8b|>\	.	.	.	.	.	4Rb\	.	.	.	.	.
8F#\J	.	8f#/J	.	8f#|>\J	.	.	.	.	.	.	.	.	.	.	.
=4	=4	=4	=4	=4	=4	=4	=4	=4	=4	=4	=4	=4	=4	=4	=4
!LO:TX:t=P:problem=mixed beam	!	!	!	!	!	!	!	!	!	!	!	!	!	!	!
8G\L	.	8g/L	.	8g/L	.	.	.	1ryy	1ryy	4Rf/	.	2r	2r	2r	2r
8E\	.	8e/	.	8e/	.	.	.	.	.	.	.	.	.	.	.
8A\	.	8a/	.	8a/	.	.	.	.	.	4r	.	.	.	.	.
8AA/J	.	8A/J	.	8A/J	.	.	.	.	.	.	.	.	.	.	.
8D\L	.	4d/	.	4d/	.	.	.	.	.	4Rb\	.	4F#/	4d\	4r	4r
8AA\	.	.	.	.	.	.	.	.	.	.	.	.	.	.	.
*	*	*tremolo	*	*	*	*	*	*	*	*	*	*	*	*	*
!	!	!	!	!	!LO:DY:t=p&colon;	!	!	!	!	!	!	!	!	!	!
8F#\	.	16A/LL	.	8ff#\L	p	.	.	.	.	4r	.	4r	4r	4dd\	4ff#\
.	.	16A/	.	.	.	.	.	.	.	.	.	.	.	.	.
8AA\J	.	16A/	.	8aa\J	.	.	.	.	.	.	.	.	.	.	.
.	.	16A/JJ	.	.	.	.	.	.	.	.	.	.	.	.	.
=5	=5	=5	=5	=5	=5	=5	=5	=5	=5	=5	=5	=5	=5	=5	=5
*	*	*	*	*	*	*	*	*	*	*	*	*2\right	*2\right	*2\right	*2\right
8E\L	.	16A/LL	.	8gg\L	.	00r	.	1ryy	1ryy	4Rf/	.	2A\	2e\	2a\	2gg\
.	.	16A/	.	.	.	.	.	.	.	.	.	.	.	.	.
8AA\	.	16A/	.	8ee\J	.	.	.	.	.	.	.	.	.	.	.
.	.	16A/	.	.	.	.	.	.	.	.	.	.	.	.	.
8G\	.	16A/	.	16dd\LL	.	.	.	.	.	4r	.	.	.	.	.
.	.	16A/	.	16cc#\	.	.	.	.	.	.	.	.	.	.	.
8AA\J	.	16A/	.	16b\	.	.	.	.	.	.	.	.	.	.	.
.	.	16A/JJ	.	16a\JJ	.	.	.	.	.	.	.	.	.	.	.
!	!	!	!	!LO:TX:t=P:problem=mixed beam	!	!	!	!	!	!	!	!	!	!	!
8F#\L	.	16A/LL	.	8dd\L	.	.	.	.	.	4Rb\	.	4d\	4f#\	4dd\	4ff#\
.	.	16A/	.	.	.	.	.	.	.	.	.	.	.	.	.
8AA\	.	16A/	.	8d/J	.	.	.	.	.	.	.	.	.	.	.
.	.	16A/	.	.	.	.	.	.	.	.	.	.	.	.	.
8D\	.	16A/	.	8ff#\L	.	.	.	.	.	4r	.	4r	4r	4r	4r
.	.	16A/	.	.	.	.	.	.	.	.	.	.	.	.	.
8AA\J	.	16A/	.	8aa\J	.	.	.	.	.	.	.	.	.	.	.
.	.	16A/JJ	.	.	.	.	.	.	.	.	.	.	.	.	.
!LO:LB:g=original	!	!	!	!	!	!	!	!	!	!	!	!	!	!	!
=6	=6	=6	=6	=6	=6	=6	=6	=6	=6	=6	=6	=6	=6	=6	=6
8E\L	.	16A/LL	.	8gg\L	.	.	.	1ryy	1ryy	4Rf/	.	2A\	2e\	2a\	2gg\
.	.	16A/	.	.	.	.	.	.	.	.	.	.	.	.	.
8AA\	.	16A/	.	8ee\J	.	.	.	.	.	.	.	.	.	.	.
.	.	16A/	.	.	.	.	.	.	.	.	.	.	.	.	.
8G\	.	16A/	.	16dd\LL	.	.	.	.	.	4r	.	.	.	.	.
.	.	16A/	.	16cc#\	.	.	.	.	.	.	.	.	.	.	.
8AA\J	.	16A/	.	16b\	.	.	.	.	.	.	.	.	.	.	.
.	.	16A/JJ	.	16a\JJ	.	.	.	.	.	.	.	.	.	.	.
!	!	!	!	!LO:LB:g=original	!	!	!	!	!	!	!	!	!	!	!
=-	=-	=-	=-	=-	=-	=-	=-	=-	=-	=-	=-	=-	=-	=-	=-
8F#\L	.	16A/LL	.	8dd\L	.	.	.	.	.	4Rb\	.	4d\	4f#\	4dd\	4ff#\
.	.	16A/	.	.	.	.	.	.	.	.	.	.	.	.	.
8AA\	.	16A/	.	8a\J	.	.	.	.	.	.	.	.	.	.	.
.	.	16A/	.	.	.	.	.	.	.	.	.	.	.	.	.
8D\	.	16A/	.	8ff#\L	.	.	.	.	.	4r	.	4r	4r	4r	4r
.	.	16A/	.	.	.	.	.	.	.	.	.	.	.	.	.
8AA\J	.	16A/	.	8aa\J	.	.	.	.	.	.	.	.	.	.	.
.	.	16A/JJ	.	.	.	.	.	.	.	.	.	.	.	.	.
!	!	!	!	!	!	!	!	!	!	!LO:LB:g=original	!	!	!	!	!
=7	=7	=7	=7	=7	=7	=7	=7	=7	=7	=7	=7	=7	=7	=7	=7
8E\L	.	16A/LL	.	8gg\L	.	.	.	1ryy	1ryy	0r	.	2A\	2e\	2a\	2gg\
.	.	16A/	.	.	.	.	.	.	.	.	.	.	.	.	.
8AA\	.	16A/	.	8ee\J	.	.	.	.	.	.	.	.	.	.	.
.	.	16A/	.	.	.	.	.	.	.	.	.	.	.	.	.
8G\	.	16A/	.	16dd\LL	.	.	.	.	.	.	.	.	.	.	.
.	.	16A/	.	16cc#\	.	.	.	.	.	.	.	.	.	.	.
8AA\J	.	16A/	.	16b\	.	.	.	.	.	.	.	.	.	.	.
.	.	16A/JJ	.	16a\JJ	.	.	.	.	.	.	.	.	.	.	.
*	*	*Xtremolo	*	*	*	*	*	*	*	*	*	*	*	*	*
!	!	!LO:LB:g=original	!	!	!	!	!	!	!	!	!	!	!	!	!
=-	=-	=-	=-	=-	=-	=-	=-	=-	=-	=-	=-	=-	=-	=-	=-
!	!	!LO:TX:t=P:problem=mixed beam	!	!	!	!	!	!	!	!	!	!	!	!	!
4F#\	.	16d/LL	.	16dd\LL	.	.	.	.	.	.	.	4d\	4f#\	4dd\	4ff#\
!	!	!	!	!	!LO:DY:b:t=for	!	!	!	!	!	!	!	!	!	!
.	.	16dd\	.	16aa\	f	.	.	.	.	.	.	.	.	.	.
.	.	16dd\	.	16aa\	.	.	.	.	.	.	.	.	.	.	.
.	.	16dd\JJ	.	16aa\JJ	.	.	.	.	.	.	.	.	.	.	.
*	*	*tremolo	*	*tremolo	*	*	*	*	*	*	*	*	*	*	*
!	!	!	!LO:DY:b:t=f&colon;	!	!	!	!	!	!	!	!	!	!	!	!
8F#\L	.	16dd\LL	f	16aa\LL	.	.	.	.	.	.	.	4r	4r	4dd\	4aa\
.	.	16dd\	.	16aa\	.	.	.	.	.	.	.	.	.	.	.
8F#\J	.	16dd\	.	16aa\	.	.	.	.	.	.	.	.	.	.	.
.	.	16dd\JJ	.	16aa\JJ	.	.	.	.	.	.	.	.	.	.	.
!	!	!	!	!	!	!	!	!	!	!	!	!LO:LB:g=original	!LO:LB:g=original	!	!LO:LB:g=original
=8	=8	=8	=8	=8	=8	=8	=8	=8	=8	=8	=8	=8	=8	=8	=8
*	*	*2\right	*	*	*	*	*	*	*	*	*	*	*	*	*
8G\L	.	16dd\LL	.	16bb\LL	.	.	.	1ryy	1ryy	.	.	2D/	2d\	2dd\	4bb\
.	.	16dd\	.	16bb\	.	.	.	.	.	.	.	.	.	.	.
8G\	.	16dd\	.	16bb\	.	.	.	.	.	.	.	.	.	.	.
.	.	16dd\	.	16bb\JJ	.	.	.	.	.	.	.	.	.	.	.
8A\	.	16dd\	.	16ff#\LL	.	.	.	.	.	.	.	.	.	.	4ff#\
.	.	16dd\	.	16ff#\	.	.	.	.	.	.	.	.	.	.	.
8A\J	.	16dd\	.	16ff#\	.	.	.	.	.	.	.	.	.	.	.
.	.	16dd\JJ	.	16ff#\JJ	.	.	.	.	.	.	.	.	.	.	.
8B\L	.	16dd\LL	.	16gg\LL	.	.	.	.	.	.	.	2r	2r	4dd\	4gg\
.	.	16dd\	.	16gg\	.	.	.	.	.	.	.	.	.	.	.
8B\	.	16dd\	.	16gg\	.	.	.	.	.	.	.	.	.	.	.
.	.	16dd\	.	16gg\JJ	.	.	.	.	.	.	.	.	.	.	.
8F#\	.	16dd\	.	16aa\LL	.	.	.	.	.	.	.	.	.	4r	4aa\
.	.	16dd\	.	16aa\	.	.	.	.	.	.	.	.	.	.	.
8F#\J	.	16dd\	.	16aa\	.	.	.	.	.	.	.	.	.	.	.
.	.	16dd\JJ	.	16aa\JJ	.	.	.	.	.	.	.	.	.	.	.
=9	=9	=9	=9	=9	=9	=9	=9	=9	=9	=9	=9	=9	=9	=9	=9
!	!	!	!	!	!	!	!	!	!	!	!	!	!	!LO:TX:a:t=1	!
8G\L	.	16dd\LL	.	16bb\LL	.	00r	.	1ryy	1ryy	1r	.	2D/	2d\	1r	1r
.	.	16dd\	.	16bb\	.	.	.	.	.	.	.	.	.	.	.
8G\	.	16dd\	.	16bb\	.	.	.	.	.	.	.	.	.	.	.
.	.	16dd\	.	16bb\JJ	.	.	.	.	.	.	.	.	.	.	.
8A\	.	16dd\	.	16ff#\LL	.	.	.	.	.	.	.	.	.	.	.
.	.	16dd\	.	16ff#\	.	.	.	.	.	.	.	.	.	.	.
8A\J	.	16dd\	.	16ff#\	.	.	.	.	.	.	.	.	.	.	.
.	.	16dd\JJ	.	16ff#\JJ	.	.	.	.	.	.	.	.	.	.	.
8B\L	.	16dd\LL	.	16gg\LL	.	.	.	.	.	.	.	2r	2r	.	.
.	.	16dd\	.	16gg\	.	.	.	.	.	.	.	.	.	.	.
8B\	.	16dd\	.	16gg\	.	.	.	.	.	.	.	.	.	.	.
.	.	16dd\	.	16gg\JJ	.	.	.	.	.	.	.	.	.	.	.
8F#\	.	16dd\	.	16aa\LL	.	.	.	.	.	.	.	.	.	.	.
.	.	16dd\	.	16aa\	.	.	.	.	.	.	.	.	.	.	.
8F#\J	.	16dd\	.	16aa\	.	.	.	.	.	.	.	.	.	.	.
.	.	16dd\JJ	.	16aa\JJ	.	.	.	.	.	.	.	.	.	.	.
!	!	!	!	!	!	!	!	!	!	!	!	!	!	!LO:LB:g=original	!
=10	=10	=10	=10	=10	=10	=10	=10	=10	=10	=10	=10	=10	=10	=10	=10
8G\L	.	16dd\LL	.	16bb\LL	.	.	.	1ryy	1ryy	4Rb\	.	1r	1r	2dd\	4bb\
.	.	16dd\	.	16bb\	.	.	.	.	.	.	.	.	.	.	.
8G\	.	16dd\	.	16bb\	.	.	.	.	.	.	.	.	.	.	.
.	.	16dd\	.	16bb\JJ	.	.	.	.	.	.	.	.	.	.	.
8F#\	.	16dd\	.	16aa\LL	.	.	.	.	.	4r	.	.	.	.	4aa\
.	.	16dd\	.	16aa\	.	.	.	.	.	.	.	.	.	.	.
8F#\J	.	16dd\	.	16aa\	.	.	.	.	.	.	.	.	.	.	.
.	.	16dd\JJ	.	16aa\JJ	.	.	.	.	.	.	.	.	.	.	.
!LO:TX:t=P:problem=mixed beam	!	!	!	!	!	!	!	!	!	!	!	!	!	!	!
8E\L	.	16dd\LL	.	16gg#X\LL	.	.	.	.	.	4r	.	.	.	4dd\	4gg#X\
.	.	16dd\	.	16gg#X\	.	.	.	.	.	.	.	.	.	.	.
8E\	.	16dd\	.	16gg#X\	.	.	.	.	.	.	.	.	.	.	.
.	.	16dd\JJ	.	16gg#X\JJ	.	.	.	.	.	.	.	.	.	.	.
8AA/	.	16a\LL	.	16ggn\LL	.	.	.	.	.	4Rf/	.	.	.	4ee\	4ggn\
.	.	16a\	.	16ggn\	.	.	.	.	.	.	.	.	.	.	.
8AA/J	.	16a\	.	16ggn\	.	.	.	.	.	.	.	.	.	.	.
.	.	16a\JJ	.	16ggn\JJ	.	.	.	.	.	.	.	.	.	.	.
=11	=11	=11	=11	=11	=11	=11	=11	=11	=11	=11	=11	=11	=11	=11	=11
8D\L	.	16dd\LL	.	16ff#\LL	.	.	.	1ryy	1ryy	4Rb\	.	4F#/	4d\	4dd\	4ff#\
.	.	16dd\	.	16ff#\	.	.	.	.	.	.	.	.	.	.	.
8D\	.	16dd\	.	16ff#\	.	.	.	.	.	.	.	.	.	.	.
.	.	16dd\JJ	.	16ff#\JJ	.	.	.	.	.	.	.	.	.	.	.
8G\	.	16g/LL	.	16ee\LL	.	.	.	.	.	8Rb\L	.	4r	4r	4r	4r
.	.	16g/	.	16ee\	.	.	.	.	.	.	.	.	.	.	.
8G\J	.	16g/	.	16ee\	.	.	.	.	.	8Rb\J	.	.	.	.	.
.	.	16g/JJ	.	16ee\JJ	.	.	.	.	.	.	.	.	.	.	.
!LO:TX:t=P:problem=mixed beam	!	!	!	!	!	!	!	!	!	!	!	!	!	!	!
8A\L	.	16f#/LL	.	16dd\LL	.	.	.	.	.	4Rb\	.	4F#/	4d\	4dd\	4ff#\
.	.	16f#/	.	16dd\	.	.	.	.	.	.	.	.	.	.	.
8A\	.	16f#/	.	16dd\	.	.	.	.	.	.	.	.	.	.	.
.	.	16f#/JJ	.	16dd\JJ	.	.	.	.	.	.	.	.	.	.	.
8AA/	.	16e/LL	.	16cc#\LL	.	.	.	.	.	4Rf\	.	4A/	4e\	4cc#\	4ee\
.	.	16e/	.	16cc#\	.	.	.	.	.	.	.	.	.	.	.
8AA/J	.	16e/	.	16cc#\	.	.	.	.	.	.	.	.	.	.	.
.	.	16e/JJ	.	16cc#\JJ	.	.	.	.	.	.	.	.	.	.	.
*	*	*Xtremolo	*	*Xtremolo	*	*	*	*	*	*	*	*	*	*	*
=12	=12	=12	=12	=12	=12	=12	=12	=12	=12	=12	=12	=12	=12	=12	=12
4D\	.	4d/	.	4dd\	.	.	.	1ryy	1ryy	8Rb\L	.	4d\	4d\	4dd\	4dd\
.	.	.	.	.	.	.	.	.	.	16Rb\L	.	.	.	.	.
.	.	.	.	.	.	.	.	.	.	16Rb\JJ	.	.	.	.	.
8d\L	.	8dd\L	.	8dd\L	.	.	.	.	.	8Rb\L	.	8d\L	8d\L	8dd\L	8dd\L
8d\J	.	8dd\J	.	8dd\J	.	.	.	.	.	16Rb\L	.	8d\J	8d\J	8dd\J	8dd\J
.	.	.	.	.	.	.	.	.	.	16Rb\JJ	.	.	.	.	.
4d\	.	4dd\	.	4dd\	.	.	.	.	.	4Rb\	.	4d\	4d\	4dd\	4dd\
4D\	.	4d/	.	4d/	.	.	.	.	.	4Rb\	.	4D/	4D/	4d/	4d/
!LO:LB:g=original	!	!	!	!	!	!	!	!	!	!	!	!	!	!	!
=13	=13	=13	=13	=13	=13	=13	=13	=13	=13	=13	=13	=13	=13	=13	=13
!	!	!	!	!	!	!	!	!	!	!LO:TX:t=P:problem=brak t. 13	!	!	!	!	!
8d\L	.	8dd\L	.	8dd\L	.	0r	.	1ryy	1ryy	1ryy	.	8d\L	8d\L	8dd\L	8dd\L
16d\L	.	16dd\L	.	16dd\L	.	.	.	.	.	.	.	8d\J	8d\J	16dd\L	16dd\L
16d\JJ	.	16dd\JJ	.	16dd\JJ	.	.	.	.	.	.	.	.	.	16dd\JJ	16dd\JJ
8d\L	.	8dd\L	.	8dd\L	.	.	.	.	.	.	.	8d\L	8d\L	8dd\L	8dd\L
16d\L	.	16dd\L	.	16dd\L	.	.	.	.	.	.	.	8d\J	8d\J	16dd\L	16dd\L
16d\JJ	.	16dd\JJ	.	16dd\JJ	.	.	.	.	.	.	.	.	.	16dd\JJ	16dd\JJ
4d\	.	4dd\	.	4dd\	.	.	.	.	.	.	.	4d\	4d\	4dd\	4dd\
8D\L	.	8d/L	.	8d/L	.	.	.	.	.	.	.	4D/	4D/	8d/L	8d/L
8F#\J	.	8f#/J	.	8f#/J	.	.	.	.	.	.	.	.	.	8f#/J	8f#/J
!	!	!	!	!LO:PB:g=original	!	!	!	!	!	!	!	!	!	!	!
=14	=14	=14	=14	=14	=14	=14	=14	=14	=14	=14	=14	=14	=14	=14	=14
!	!	!	!	!	!	!	!	!	!	!	!	!	!LO:TX:a:t=1	!	!
8G\L	.	8g/L	.	8g|</L	.	.	.	1ryy	1ryy	1r	.	1r	1r	8g\L	8g/L
8A\	.	8a/	.	8a|</	.	.	.	.	.	.	.	.	.	8a\	8a/
8B\	.	8b/	.	8b|</	.	.	.	.	.	.	.	.	.	8b\	8b/
8c#\J	.	8cc#/J	.	8cc#|</J	.	.	.	.	.	.	.	.	.	8cc#\J	8cc#/J
8d\L	.	8dd\L	.	8dd|</L	.	.	.	.	.	.	.	.	.	4dd\	4dd\
8A\	.	8a\	.	8a|</	.	.	.	.	.	.	.	.	.	.	.
8B\	.	8b\	.	8b|</	.	.	.	.	.	.	.	.	.	4r	4r
8F#\J	.	8f#\J	.	8f#|</J	.	.	.	.	.	.	.	.	.	.	.
!	!	!LO:LB:g=original	!	!	!	!	!	!	!	!	!	!	!	!	!
=15	=15	=15	=15	=15	=15	=15	=15	=15	=15	=15	=15	=15	=15	=15	=15
!LO:TX:t=P:problem=mixed beam	!	!	!	!	!	!	!	!	!	!	!	!	!	!	!
8G\L	.	8g/L	.	8g/L	.	1r	.	1ryy	1ryy	2r	.	2r	2r	2r	2r
8E\	.	8e/	.	8e/	.	.	.	.	.	.	.	.	.	.	.
8A\	.	8a/	.	8a/	.	.	.	.	.	.	.	.	.	.	.
8AA/J	.	8A/J	.	8A/J	.	.	.	.	.	.	.	.	.	.	.
4D\	.	4d/ 4a	.	4d\ 4a 4ff#	.	.	.	.	.	4Rb\	.	4F#/	4d\	4ff#\	4ff#\
4r	.	4r	.	4r	.	.	.	.	.	4r	.	4r	4r	4r	4r
!	!	!	!	!	!	!	!	!	!	!	!	!	!	!	!LO:LB:g=original
=16	=16	=16	=16	=16	=16	=16	=16	=16	=16	=16	=16	=16	=16	=16	=16
!	!LO:DY:b:t=p&colon;	!	!LO:DY:b:t=p&colon;:rj	!	!LO:DY:b:t=p&colon;	!	!	!	!	!	!	!	!	!LO:TX:a:t=4	!
4d\	p	4dd\	p	4dd\	p	8d\	An-	1ryy	1ryy	0r	.	00r	00r	00r	00r
.	.	.	.	.	.	16d\	-nus	.	.	.	.	.	.	.	.
.	.	.	.	.	.	16d\	de-	.	.	.	.	.	.	.	.
8d\L	.	8dd\L	.	8dd\L	.	8d\	-si-	.	.	.	.	.	.	.	.
8d\J	.	8dd\J	.	8dd\J	.	8d\	-de-	.	.	.	.	.	.	.	.
4d\	.	4dd\	.	4dd\	.	4d\	-ra-	.	.	.	.	.	.	.	.
4D\	.	4d/	.	4d/	.	4D\	-tus	.	.	.	.	.	.	.	.
=17	=17	=17	=17	=17	=17	=17	=17	=17	=17	=17	=17	=17	=17	=17	=17
8d\L	.	8dd\L	.	8dd\L	.	8d\	an-	1ryy	1ryy	.	.	.	.	.	.
16d\L	.	16dd\L	.	16dd\L	.	16d\	-nus	.	.	.	.	.	.	.	.
16d\JJ	.	16dd\JJ	.	16dd\JJ	.	16d\	de-	.	.	.	.	.	.	.	.
8d\L	.	8dd\L	.	8dd\L	.	8d\	-si-	.	.	.	.	.	.	.	.
16d\L	.	16dd\L	.	16dd\L	.	8d\	-de-	.	.	.	.	.	.	.	.
16d\JJ	.	16dd\JJ	.	16dd\JJ	.	.	.	.	.	.	.	.	.	.	.
4d\	.	4dd\	.	4dd\	.	4d\	-ra-	.	.	.	.	.	.	.	.
8D\L	.	8d/L	.	8d/L	.	8D\L	-tus	.	.	.	.	.	.	.	.
!	!	!	!	!	!	!LO:TX:t=P:problem=nieczytelny i niezrozumiały tekst do końca części	!	!	!	!	!	!	!	!	!
8F#\J	.	8f#/J	.	8f#/J	.	8F#\J	Ma-	.	.	.	.	.	.	.	.
=18	=18	=18	=18	=18	=18	=18	=18	=18	=18	=18	=18	=18	=18	=18	=18
8G\L	.	8.g/L	.	8.g\L	.	8.G\	-ra-	1ryy	1ryy	1r	.	.	.	.	.
8A\	.	.	.	.	.	.	.	.	.	.	.	.	.	.	.
.	.	16a/Jk	.	16a\Jk	.	16A\	-li-	.	.	.	.	.	.	.	.
8B\	.	8b\L	.	8b\L	.	8B\	-bus	.	.	.	.	.	.	.	.
8c#\J	.	8cc#\J	.	8cc#\J	.	8c#\	fe-	.	.	.	.	.	.	.	.
!	!	!	!	!	!	!LO:LB:g=original	!	!	!	!	!	!	!	!	!
=-	=-	=-	=-	=-	=-	=-	=-	=-	=-	=-	=-	=-	=-	=-	=-
8d\L	.	8dd\L	.	8dd\L	.	8d\	.	.	.	.	.	.	.	.	.
8A\	.	8a\	.	8a\	.	8A\	.	.	.	.	.	.	.	.	.
8B\	.	8b\	.	8b\	.	8B\	.	.	.	.	.	.	.	.	.
8F#\J	.	8f#\J	.	8f#\J	.	16F#\	-ry-	.	.	.	.	.	.	.	.
.	.	.	.	.	.	16F#\	-is	.	.	.	.	.	.	.	.
!LO:LB:g=original	!	!	!	!	!	!	!	!	!	!	!	!	!	!	!
=19	=19	=19	=19	=19	=19	=19	=19	=19	=19	=19	=19	=19	=19	=19	=19
!LO:TX:t=P:problem=mixed beam	!	!	!	!	!	!	!	!	!	!	!	!	!	!	!
8G\L	.	8g/L	.	8g/L	.	8G\L	ef-	1ryy	1ryy	2r	.	.	.	.	.
8E\	.	8e/	.	8e/	.	8E\J	.	.	.	.	.	.	.	.	.
8A\	.	8a/	.	8a/	.	8A\	-flo-	.	.	.	.	.	.	.	.
8AA/J	.	8A/J	.	8A/J	.	8A\	-ru-	.	.	.	.	.	.	.	.
!	!	!	!LO:DY:b:t=f&colon;	!	!	!	!	!	!	!	!	!	!	!	!
8D\L	.	8d/L	f	8d/	.	4D\	-it	.	.	4Rb\	.	.	.	.	.
!	!LO:DY:b:t=f.	!	!	!	!	!	!	!	!	!	!	!	!	!	!
16F#\L	f	8d/J 8a	.	8d\ 8a 8ff#	.	.	.	.	.	.	.	.	.	.	.
16A\JJ	.	.	.	.	.	.	.	.	.	.	.	.	.	.	.
4d\	.	4d/ 4a	.	4d\ 4a 4ff#	.	4r	.	.	.	4r	.	.	.	.	.
!	!	!	!	!	!	!	!	!	!	!LO:LB:g=original	!	!	!	!	!
=20	=20	=20	=20	=20	=20	=20	=20	=20	=20	=20	=20	=20	=20	=20	=20
*	*	*	*	*2\right	*	*	*	*	*	*	*	*	*	*	*
*	*	*	*	*tremolo	*	*	*	*	*	*	*	*	*	*	*
!LO:TX:t=P:problem=mixed beam	!	!	!LO:DY:b:t=p&colon;	!	!	!	!	!	!	!	!LO:DY:b:t=p.	!	!	!	!
8D/L	.	8dd\L	p	8ff#\L	.	8D\L	quid	1ryy	1ryy	4Rb\	p	4d\	4f#\	4dd\	4ff#\
!	!LO:DY:b:t=p&colon;	!	!	!	!	!	!	!	!	!	!	!	!	!	!
8d\	p	8dd\	.	8ff#\	.	16F#\L	.	.	.	.	.	.	.	.	.
.	.	.	.	.	.	16A\JJ	.	.	.	.	.	.	.	.	.
8d\	.	8a#X\	.	8ff#\	.	8d\L	.	.	.	4r	.	4r	4r	4r	4r
8d\J	.	8b\J	.	8ff#\J	.	8f#\J	ni-	.	.	.	.	.	.	.	.
*2\right	*	*	*	*	*	*	*	*	*	*	*	*	*	*	*
!	!	!LO:SIC:v:s=8an\L	!	!	!	!	!	!	!	!	!	!	!	!	!
2c#\	.	8a#\L	.	8ee\L	.	8.e\L	-fi-	.	.	4Rf/	.	4A\	4e\	4cc#\	4ee\
!	!	!LO:SIC:v:s=8an\	!	!	!	!	!	!	!	!	!	!	!	!	!
.	.	8a#\	.	8ee\	.	.	.	.	.	.	.	.	.	.	.
.	.	.	.	.	.	16c#\Jk	.	.	.	.	.	.	.	.	.
.	.	8g#X\	.	8ee\	.	8A\	-lys	.	.	4r	.	4r	4r	4r	4r
!	!	!LO:SIC:v:s=8an\J	!	!	!	!	!	!	!	!	!	!	!	!	!
.	.	8a#\J	.	8ee\J	.	8c#\	ju-	.	.	.	.	.	.	.	.
!	!	!	!	!	!	!	!	!	!	!	!	!	!LO:LB:g=original	!	!
=21	=21	=21	=21	=21	=21	=21	=21	=21	=21	=21	=21	=21	=21	=21	=21
!	!	!	!	!	!	!	!	!	!	!LO:TX:a:t=21	!	!	!	!	!
8B\L	.	8f#/L	.	8dd\L	.	8.d\L	-cun-	1ryy	1ryy	00r	.	2r	2r	4b\	4dd\
8B\	.	8f#/	.	8dd\	.	.	.	.	.	.	.	.	.	.	.
.	.	.	.	.	.	32c#\LL	-de	.	.	.	.	.	.	.	.
.	.	.	.	.	.	32d\JJJ	.	.	.	.	.	.	.	.	.
8E\	.	8g#X/	.	8dd\	.	8e\L	plau-	.	.	.	.	.	.	4r	4r
8E\J	.	8g#/J	.	8dd\J	.	8d\J	.	.	.	.	.	.	.	.	.
!	!	!LO:LB:g=original	!	!	!	!	!	!	!	!	!	!	!	!	!
=-	=-	=-	=-	=-	=-	=-	=-	=-	=-	=-	=-	=-	=-	=-	=-
8A\L	.	4a\	.	8cc#\L	.	4c#\	-den-	.	.	.	.	4A/	4e\	4a\	4cc#\
8A\	.	.	.	8cc#\	.	.	.	.	.	.	.	.	.	.	.
8C#\	.	8a\L	.	8cc#\	.	8e\	-dum	.	.	.	.	4r	4r	4r	4r
8C#\J	.	8a\J	.	8cc#\J	.	8c#\	ac	.	.	.	.	.	.	.	.
!	!	!	!	!LO:LB:g=original	!	!	!	!	!	!	!	!LO:LB:g=original	!	!LO:LB:g=original	!
=22	=22	=22	=22	=22	=22	=22	=22	=22	=22	=22	=22	=22	=22	=22	=22
*	*	*tremolo	*	*	*	*	*	*	*	*	*	*	*	*	*
!	!	!	!	!	!	!	!	!	!	!	!	!	!	!	!LO:TX:a:t=2
8D\L	.	8f#/L	.	8b\L	.	8B\	lae-	1ryy	1ryy	.	.	00r	00r	0r	0r
8D\	.	8f#/	.	8b\	.	8B\	-tae	.	.	.	.	.	.	.	.
8D#X\	.	8f#/	.	8b\	.	8.B\	ju-	.	.	.	.	.	.	.	.
8D#\J	.	8f#/J	.	8b\J	.	.	.	.	.	.	.	.	.	.	.
*	*	*Xtremolo	*	*	*	*	*	*	*	*	*	*	*	*	*
!	!	!	!	!	!	!LO:N:vis=8	!	!	!	!	!	!	!	!	!
.	.	.	.	.	.	16A\	-bi-	.	.	.	.	.	.	.	.
!	!	!	!	!	!	!LO:LB:g=original	!	!	!	!	!	!	!	!	!
=-	=-	=-	=-	=-	=-	=-	=-	=-	=-	=-	=-	=-	=-	=-	=-
8E\L	.	8g#X/L	.	8b\L	.	8G#X\	-lan-	.	.	.	.	.	.	.	.
8E\	.	8g#/	.	8b\	.	8E\	-dum	.	.	.	.	.	.	.	.
8C#\	.	8a/	.	8b\	.	8e\	.	.	.	.	.	.	.	.	.
8C#\J	.	8a/J	.	8b\J	.	8c#\	ac	.	.	.	.	.	.	.	.
=23	=23	=23	=23	=23	=23	=23	=23	=23	=23	=23	=23	=23	=23	=23	=23
*	*	*tremolo	*	*	*	*	*	*	*	*	*	*	*	*	*
8D\L	.	8f#/L	.	8b\L	.	8B\	lae-	1ryy	1ryy	.	.	.	.	.	.
8D\	.	8f#/	.	8b\	.	8B\	-tae	.	.	.	.	.	.	.	.
8D#X\	.	8f#/	.	8b\	.	8.B\	ju-	.	.	.	.	.	.	.	.
8D#\J	.	8f#/J	.	8b\J	.	.	.	.	.	.	.	.	.	.	.
.	.	.	.	.	.	16A\	-bi-	.	.	.	.	.	.	.	.
*	*	*Xtremolo	*	*Xtremolo	*	*	*	*	*	*	*	*	*	*	*
!LO:TX:t=P:problem=mixed beam	!	!	!	!	!	!	!	!	!	!	!	!	!	!	!
8E\L	.	8g#X/L	.	8b\L 8ee	.	8G#X\	-lan-	.	.	.	.	.	.	.	.
8EE/J	.	8g#/J	.	8b\J 8ee	.	8E\	-dum	.	.	.	.	.	.	.	.
4EE/	.	4g#/	.	4b\ 4ee	.	4e\	.	.	.	.	.	.	.	.	.
=24	=24	=24	=24	=24	=24	=24	=24	=24	=24	=24	=24	=24	=24	=24	=24
*	*	*	*	*^	*	*	*	*	*	*	*	*	*	*	*
*	*	*tremolo	*	*	*tremolo	*	*	*	*	*	*	*	*	*	*	*
8A\L	.	16e/LL	.	8cc#/L	16e/LL	.	8c#\L	ju-	1ryy	1ryy	.	.	.	.	4cc#\	4aa\
.	.	16e/	.	.	16e/	.	.	.	.	.	.	.	.	.	.	.
8c#\	.	16e/	.	8a/	16e/	.	8A\J	.	.	.	.	.	.	.	.	.
.	.	16e/	.	.	16e/	.	.	.	.	.	.	.	.	.	.	.
!	!	!	!	!LO:SIC:v:s=8g#/	!	!	!	!	!	!	!	!	!	!	!	!
8B\	.	16e/	.	8g/	16e/	.	8G#X\	-cun-	.	.	.	.	.	.	4dd\	4bb\
.	.	16e/	.	.	16e/	.	.	.	.	.	.	.	.	.	.	.
8d\J	.	16e/	.	8e/J	16e/	.	8E\	.	.	.	.	.	.	.	.	.
.	.	16e/JJ	.	.	16e/JJ	.	.	.	.	.	.	.	.	.	.	.
8c#\L	.	16e/LL	.	8a\L	16e/LL	.	8A\	-de	.	.	.	.	.	.	4cc#\	4aa\
.	.	16e/	.	.	16e/	.	.	.	.	.	.	.	.	.	.	.
8A\	.	16e/	.	8cc#\	16e/	.	8c#\	plau-	.	.	.	.	.	.	.	.
.	.	16e/	.	.	16e/	.	.	.	.	.	.	.	.	.	.	.
8G#X\	.	16e/	.	8ee\	16e/	.	8.e\	-den	.	.	.	.	.	.	4r	4r
.	.	16e/	.	.	16e/	.	.	.	.	.	.	.	.	.	.	.
8E\J	.	16e/	.	8dd\J	16e/	.	.	.	.	.	.	.	.	.	.	.
.	.	16e/JJ	.	.	16e/JJ	.	16d\	dum	.	.	.	.	.	.	.	.
=25	=25	=25	=25	=25	=25	=25	=25	=25	=25	=25	=25	=25	=25	=25	=25	=25
8A\L	.	16e/LL	.	8cc#\L	16e/LL	.	8c#\	ac	1ryy	1ryy	00r	.	.	.	4cc#\	4aa\
.	.	16e/	.	.	16e/	.	.	.	.	.	.	.	.	.	.	.
8c#\	.	16e/	.	8a\	16e/	.	8A\	.	.	.	.	.	.	.	.	.
.	.	16e/	.	.	16e/	.	.	.	.	.	.	.	.	.	.	.
!	!	!	!	!LO:SIC:v:s=8g#\	!	!	!	!	!	!	!	!	!	!	!	!
8B\	.	16e/	.	8g\	16e/	.	8G#X\	lae-	.	.	.	.	.	.	4dd\	4bb\
.	.	16e/	.	.	16e/	.	.	.	.	.	.	.	.	.	.	.
8d\J	.	16e/	.	8e\J	16e/	.	8E\	-tae	.	.	.	.	.	.	.	.
.	.	16e/JJ	.	.	16e/JJ	.	.	.	.	.	.	.	.	.	.	.
!LO:LB:g=original	!	!	!	!	!	!	!	!	!	!	!	!	!	!	!	!
=-	=-	=-	=-	=-	=-	=-	=-	=-	=-	=-	=-	=-	=-	=-	=-	=-
8c#\L	.	16e/LL	.	8a\L	16e/LL	.	8A\	ju-	.	.	.	.	.	.	4cc#\	4aa\
.	.	16e/	.	.	16e/	.	.	.	.	.	.	.	.	.	.	.
8A\	.	16e/	.	8cc#\	16e/	.	8c#\	-bi-	.	.	.	.	.	.	.	.
.	.	16e/	.	.	16e/	.	.	.	.	.	.	.	.	.	.	.
8G#X\	.	16e/	.	8ee\	16e/	.	8.e\	-lan-	.	.	.	.	.	.	4r	4r
.	.	16e/	.	.	16e/	.	.	.	.	.	.	.	.	.	.	.
8E\J	.	16e/	.	8dd\J	16e/	.	.	.	.	.	.	.	.	.	.	.
.	.	16e/JJ	.	.	16e/JJ	.	16d\	-dum	.	.	.	.	.	.	.	.
!	!	!	!	!	!	!	!LO:LB:g=original	!	!	!	!	!	!	!	!	!
=26	=26	=26	=26	=26	=26	=26	=26	=26	=26	=26	=26	=26	=26	=26	=26	=26
8A\L	.	16e/LL	.	8cc#\L	16e/LL	.	8c#\	ac	1ryy	1ryy	.	.	00r	00r	4cc#\	4aa\
.	.	16e/	.	.	16e/	.	.	.	.	.	.	.	.	.	.	.
8c#\	.	16e/	.	8a\	16e/	.	8A\	.	.	.	.	.	.	.	.	.
.	.	16e/	.	.	16e/	.	.	.	.	.	.	.	.	.	.	.
!	!	!	!	!LO:SIC:v:s=8g#\	!	!	!	!	!	!	!	!	!	!	!	!
8B\	.	16e/	.	8g\	16e/	.	8G#X\	lae-	.	.	.	.	.	.	4dd\	4bb\
.	.	16e/	.	.	16e/	.	.	.	.	.	.	.	.	.	.	.
8d\J	.	16e/	.	8e\J	16e/	.	8E\	-tae	.	.	.	.	.	.	.	.
.	.	16e/JJ	.	.	16e/JJ	.	.	.	.	.	.	.	.	.	.	.
8c#\L	.	16e/LL	.	8a\L	16e/LL	.	8A\	ju-	.	.	.	.	.	.	4cc#\	4aa\
.	.	16e/	.	.	16e/	.	.	.	.	.	.	.	.	.	.	.
8A\	.	16e/	.	8cc#\	16e/	.	8c#\	.	.	.	.	.	.	.	.	.
.	.	16e/	.	.	16e/JJ	.	.	.	.	.	.	.	.	.	.	.
8A\	.	16e/	.	8ee\	4e/	.	8.e\	.	.	.	.	.	.	.	4r	4r
.	.	16e/	.	.	.	.	.	.	.	.	.	.	.	.	.	.
8c#\J	.	16e/	.	8dd\J	.	.	.	.	.	.	.	.	.	.	.	.
.	.	16e/JJ	.	.	.	.	16A\	-bi-	.	.	.	.	.	.	.	.
*	*	*Xtremolo	*	*	*	*	*	*	*	*	*	*	*	*	*	*
=27	=27	=27	=27	=27	=27	=27	=27	=27	=27	=27	=27	=27	=27	=27	=27	=27
*tremolo	*	*	*	*	*	*	*	*	*	*	*	*	*	*	*	*
!	!	!	!	!	!	!	!	!	!	!	!	!	!	!	!LO:TX:a:t=15	!
8d\L	.	8a\L	.	8ff#\L	8a\L	.	32F#\LLL	-la-	1ryy	1ryy	.	.	.	.	00r	00r
.	.	.	.	.	.	.	32G\	.	.	.	.	.	.	.	.	.
.	.	.	.	.	.	.	32F#\	.	.	.	.	.	.	.	.	.
.	.	.	.	.	.	.	32E\JJ	.	.	.	.	.	.	.	.	.
8d\	.	8a\	.	8ff#\	8a\	.	8.F#\J	.	.	.	.	.	.	.	.	.
8d\	.	8a\	.	8ff#\	8a\	.	.	.	.	.	.	.	.	.	.	.
.	.	.	.	.	.	.	16F#\LL	.	.	.	.	.	.	.	.	.
8d\J	.	8a#X\J	.	8ff#\J	8a#X\J	.	16G\	.	.	.	.	.	.	.	.	.
.	.	.	.	.	.	.	16A#X\JJ	.	.	.	.	.	.	.	.	.
*	*	*tremolo	*	*	*	*	*	*	*	*	*	*	*	*	*	*
8G#X\L	.	8b\L	.	8b\ 8ff#L	2rcyy	.	32B\LLL	.	.	.	.	.	.	.	.	.
.	.	.	.	.	.	.	32c#\	.	.	.	.	.	.	.	.	.
.	.	.	.	.	.	.	32B\	.	.	.	.	.	.	.	.	.
.	.	.	.	.	.	.	32c#\JJ	.	.	.	.	.	.	.	.	.
8G#X\	.	8b\	.	8b\ 8ff#	.	.	8.d\J	.	.	.	.	.	.	.	.	.
8G#X\	.	8b\	.	8b\ 8ff#	.	.	.	.	.	.	.	.	.	.	.	.
.	.	.	.	.	.	.	16B\LL	.	.	.	.	.	.	.	.	.
8G#X\J	.	8b\J	.	8b\ 8ff#J	.	.	16G#X\	.	.	.	.	.	.	.	.	.
.	.	.	.	.	.	.	16F#\JJ	.	.	.	.	.	.	.	.	.
*	*	*Xtremolo	*	*	*	*	*	*	*	*	*	*	*	*	*	*
=28	=28	=28	=28	=28	=28	=28	=28	=28	=28	=28	=28	=28	=28	=28	=28	=28
8c#\L	.	8b\L	.	8ee\L	8b\L	.	32E\LLL	.	1ryy	1ryy	.	.	.	.	.	.
.	.	.	.	.	.	.	32F#\	.	.	.	.	.	.	.	.	.
.	.	.	.	.	.	.	32E\	.	.	.	.	.	.	.	.	.
.	.	.	.	.	.	.	32D#X\JJ	.	.	.	.	.	.	.	.	.
8c#\	.	8b\	.	8ee\	8b\	.	8.E\J	.	.	.	.	.	.	.	.	.
8c#\	.	8b\	.	8ee\	8b\	.	.	.	.	.	.	.	.	.	.	.
.	.	.	.	.	.	.	16E\LL	.	.	.	.	.	.	.	.	.
8c#\J	.	8g#X\J	.	8ee\J	8g#X\J	.	16F#\	.	.	.	.	.	.	.	.	.
.	.	.	.	.	.	.	16G#X\JJ	.	.	.	.	.	.	.	.	.
*	*	*tremolo	*	*	*	*	*	*	*	*	*	*	*	*	*	*
8F#\L	.	8a\L	.	8a\ 8eeL	2rcyy	.	32A\LLL	.	.	.	.	.	.	.	.	.
.	.	.	.	.	.	.	32B\	.	.	.	.	.	.	.	.	.
.	.	.	.	.	.	.	32A\	.	.	.	.	.	.	.	.	.
.	.	.	.	.	.	.	32B\JJ	.	.	.	.	.	.	.	.	.
8F#\	.	8a\	.	8a\ 8ee	.	.	8.c#\J	.	.	.	.	.	.	.	.	.
8F#\	.	8a\	.	8a\ 8ee	.	.	.	.	.	.	.	.	.	.	.	.
.	.	.	.	.	.	.	16A\LL	.	.	.	.	.	.	.	.	.
8F#\J	.	8a\J	.	8a\ 8eeJ	.	.	16F#\	.	.	.	.	.	.	.	.	.
.	.	.	.	.	.	.	16E\JJ	.	.	.	.	.	.	.	.	.
*	*	*Xtremolo	*	*	*	*	*	*	*	*	*	*	*	*	*	*
!	!	!	!	!	!	!	!LO:LB:g=original	!	!	!	!	!	!	!	!	!
=29	=29	=29	=29	=29	=29	=29	=29	=29	=29	=29	=29	=29	=29	=29	=29	=29
8B\L	.	8a\L	.	8dd\L	8a\L	.	32D\LLL	.	1ryy	1ryy	00r	.	.	.	.	.
.	.	.	.	.	.	.	32E\	.	.	.	.	.	.	.	.	.
.	.	.	.	.	.	.	32D\	.	.	.	.	.	.	.	.	.
.	.	.	.	.	.	.	32C#\JJ	.	.	.	.	.	.	.	.	.
8B\	.	8a\	.	8dd\	8a\	.	8.D\J	.	.	.	.	.	.	.	.	.
8B\	.	8a\	.	8dd\	8a\	.	.	.	.	.	.	.	.	.	.	.
.	.	.	.	.	.	.	16D\LL	.	.	.	.	.	.	.	.	.
8B\J	.	8f#\J	.	8dd\J	8f#\J	.	16E\	.	.	.	.	.	.	.	.	.
.	.	.	.	.	.	.	16F#\JJ	.	.	.	.	.	.	.	.	.
!	!	!LO:LB:g=original	!	!	!	!	!	!	!	!	!	!	!	!	!	!
=-	=-	=-	=-	=-	=-	=-	=-	=-	=-	=-	=-	=-	=-	=-	=-	=-
*	*	*tremolo	*	*	*	*	*	*	*	*	*	*	*	*	*	*
8E\L	.	8g#X/L	.	8dd\L	2rcyy	.	32G#X\LLL	.	.	.	.	.	.	.	.	.
.	.	.	.	.	.	.	32A\	.	.	.	.	.	.	.	.	.
.	.	.	.	.	.	.	32G#\	.	.	.	.	.	.	.	.	.
.	.	.	.	.	.	.	32A\JJ	.	.	.	.	.	.	.	.	.
8E\	.	8g#X/	.	8dd\	.	.	8.B\J	-lan-	.	.	.	.	.	.	.	.
8E\	.	8g#X/	.	8dd\	.	.	.	.	.	.	.	.	.	.	.	.
.	.	.	.	.	.	.	16G#\LL	.	.	.	.	.	.	.	.	.
8E\J	.	8g#X/J	.	8dd\J	.	.	16E\	.	.	.	.	.	.	.	.	.
.	.	.	.	.	.	.	16D\JJ	.	.	.	.	.	.	.	.	.
*Xtremolo	*	*Xtremolo	*	*Xtremolo	*	*	*	*	*	*	*	*	*	*	*	*
*	*	*	*	*v	*v	*	*	*	*	*	*	*	*	*	*	*
=30	=30	=30	=30	=30	=30	=30	=30	=30	=30	=30	=30	=30	=30	=30	=30
4A\	.	4e/	.	4c#/	.	4C#\	-dum	1ryy	1ryy	.	.	00r	00r	.	.
8C#\L	.	8c#/L	.	8c#|</L	.	8A\	quid	.	.	.	.	.	.	.	.
8A\J	.	8a/J	.	8a|</J	.	8A\	ni-	.	.	.	.	.	.	.	.
8D\L	.	8d/L	.	8d|</L	.	4D\	-fi-	.	.	.	.	.	.	.	.
8A\	.	8a/	.	8a|</	.	.	.	.	.	.	.	.	.	.	.
8E\	.	8e/	.	8e|</	.	4E\	-lys	.	.	.	.	.	.	.	.
8A\J	.	8a/J	.	8a|</J	.	.	.	.	.	.	.	.	.	.	.
!	!	!	!	!LO:LB:g=original	!	!	!	!	!	!	!	!	!	!	!
=31	=31	=31	=31	=31	=31	=31	=31	=31	=31	=31	=31	=31	=31	=31	=31
8F#\L	.	8f#/L	.	8f#|</L	.	4F#\	ju-	1ryy	1ryy	.	.	.	.	00r	00r
8A\	.	8a/	.	8a|</	.	.	.	.	.	.	.	.	.	.	.
8E\	.	8e/	.	8e|</	.	4E\	-cun-	.	.	.	.	.	.	.	.
8A\J	.	8a/J	.	8a|</J	.	.	.	.	.	.	.	.	.	.	.
8D#X\L	.	8d#X/L	.	8d#X|</L	.	4D#X\	-de	.	.	.	.	.	.	.	.
8A\	.	8a/	.	8a|</	.	.	.	.	.	.	.	.	.	.	.
8E\	.	8e/	.	8e|</	.	4E\	plau-	.	.	.	.	.	.	.	.
8A\J	.	8a/J	.	8a|</J	.	.	.	.	.	.	.	.	.	.	.
=32	=32	=32	=32	=32	=32	=32	=32	=32	=32	=32	=32	=32	=32	=32	=32
8Fn\L	.	8fn/L	.	8fn|</L	.	4Fn\	.	1ryy	1ryy	.	.	.	.	.	.
8A\	.	8a/	.	8a|</	.	.	.	.	.	.	.	.	.	.	.
8E\	.	8e/	.	8e|</	.	4E\	.	.	.	.	.	.	.	.	.
8A\J	.	8a/J	.	8a|</J	.	.	.	.	.	.	.	.	.	.	.
8D#X\L	.	8d#X/L	.	8d#X/L	.	4D#X\	-den-	.	.	.	.	.	.	.	.
8A\	.	8a/	.	8a/	.	.	.	.	.	.	.	.	.	.	.
8E\	.	8e/	.	8e/	.	4E\	-dum	.	.	.	.	.	.	.	.
8A\J	.	8a/J	.	8a/J	.	.	.	.	.	.	.	.	.	.	.
!LO:LB:g=original	!	!	!	!	!	!	!	!	!	!	!	!	!	!	!
=33	=33	=33	=33	=33	=33	=33	=33	=33	=33	=33	=33	=33	=33	=33	=33
2ryy	.	8f#/L	.	8f#/L	.	4F#X\	ac	1ryy	1ryy	00r	.	.	.	.	.
.	.	8a/	.	8a/	.	.	.	.	.	.	.	.	.	.	.
.	.	8e/	.	8e/	.	4E\	.	.	.	.	.	.	.	.	.
.	.	8a/J	.	8a/J	.	.	.	.	.	.	.	.	.	.	.
*	*	*	*	*	*	*2\right	*	*	*	*	*	*	*	*	*
2Fn\	.	8d#X/L	.	2dd#X\	.	2D#X\	lae-	.	.	.	.	.	.	.	.
.	.	8a/J	.	.	.	.	.	.	.	.	.	.	.	.	.
.	.	4a/	.	.	.	.	.	.	.	.	.	.	.	.	.
=34	=34	=34	=34	=34	=34	=34	=34	=34	=34	=34	=34	=34	=34	=34	=34
4E\	.	4b\	.	4ee\	.	4E\	-tae	1ryy	1ryy	.	.	00r	00r	.	.
4r	.	4r	.	4r	.	4r;	.	.	.	.	.	.	.	.	.
2Fn\	.	4.a\	.	4.dd#X\	.	8d#X\	ju-	.	.	.	.	.	.	.	.
.	.	.	.	.	.	8d#\	-bi-	.	.	.	.	.	.	.	.
.	.	.	.	.	.	4ryy	.	.	.	.	.	.	.	.	.
.	.	8a\	.	8dd#\	.	.	.	.	.	.	.	.	.	.	.
!	!	!	!	!	!	!LO:LB:g=original	!	!	!	!	!	!	!	!	!
=35	=35	=35	=35	=35	=35	=35	=35	=35	=35	=35	=35	=35	=35	=35	=35
2E\	.	2b\	.	2ee\	.	4e\	-lan-	1ryy	1ryy	.	.	.	.	00r	00r
.	.	.	.	.	.	4E\	-dum	.	.	.	.	.	.	.	.
2r;>	.	2r;>	.	2r;>	.	2r	.	.	.	.	.	.	.	.	.
!	!	!LO:LB:g=original	!	!	!	!	!	!	!	!	!	!	!	!	!
=36	=36	=36	=36	=36	=36	=36	=36	=36	=36	=36	=36	=36	=36	=36	=36
4A\	.	4a/	.	4c#|>/	.	4r	.	1ryy	1ryy	.	.	.	.	.	.
8C#\L	.	8c#/L	.	8c#|</L	.	4C#\	ju-	.	.	.	.	.	.	.	.
8A\J	.	8a/J	.	8a|</J	.	.	.	.	.	.	.	.	.	.	.
8D\L	.	8d/L	.	8d|</L	.	4D\	-cun-	.	.	.	.	.	.	.	.
8A\	.	8a/	.	8a|</	.	.	.	.	.	.	.	.	.	.	.
8E\	.	8e/	.	8e|</	.	4E\	.	.	.	.	.	.	.	.	.
8A\J	.	8a/J	.	8a|</J	.	.	.	.	.	.	.	.	.	.	.
=37	=37	=37	=37	=37	=37	=37	=37	=37	=37	=37	=37	=37	=37	=37	=37
8F#\L	.	8f#/L	.	8f#|</L	.	4F#\	-de	1ryy	1ryy	00r	.	.	.	.	.
8A\	.	8a/	.	8a|</	.	.	.	.	.	.	.	.	.	.	.
8E\	.	8e/	.	8e|</	.	4E\	plau-	.	.	.	.	.	.	.	.
8A\J	.	8a/J	.	8a|</J	.	.	.	.	.	.	.	.	.	.	.
8D#X\L	.	8d#X/L	.	8d#X|</L	.	4D#X\	-den-	.	.	.	.	.	.	.	.
8A\	.	8a/	.	8a|</	.	.	.	.	.	.	.	.	.	.	.
8E\	.	8e/	.	8e|</	.	4E\	-dum	.	.	.	.	.	.	.	.
8A\J	.	8a/J	.	8a|</J	.	.	.	.	.	.	.	.	.	.	.
=38	=38	=38	=38	=38	=38	=38	=38	=38	=38	=38	=38	=38	=38	=38	=38
8Fn\L	.	8fn/L	.	8fn|</L	.	4Fn\	ac	1ryy	1ryy	.	.	00r	00r	.	.
8A\	.	8a/	.	8a|</	.	.	.	.	.	.	.	.	.	.	.
8E\	.	8e/	.	8e|</	.	4E\	.	.	.	.	.	.	.	.	.
8A\J	.	8a/J	.	8a|</J	.	.	.	.	.	.	.	.	.	.	.
!	!	!	!	!LO:LB:g=original	!	!	!	!	!	!	!	!	!	!	!
=-	=-	=-	=-	=-	=-	=-	=-	=-	=-	=-	=-	=-	=-	=-	=-
8D#X\L	.	8d#X/L	.	8d#X/L	.	4D#X\	lae-	.	.	.	.	.	.	.	.
8A\	.	8a/	.	8a/	.	.	.	.	.	.	.	.	.	.	.
8E\	.	8e/	.	8e/	.	4E\	-tae	.	.	.	.	.	.	.	.
8A\J	.	8a/J	.	8a/J	.	.	.	.	.	.	.	.	.	.	.
=39	=39	=39	=39	=39	=39	=39	=39	=39	=39	=39	=39	=39	=39	=39	=39
8F#X\L	.	8f#X/L	.	8f#/L	.	4F#X\	ju-	1ryy	1ryy	.	.	.	.	0r	0r
8A\	.	8a/	.	8a/	.	.	.	.	.	.	.	.	.	.	.
8E\	.	8e/	.	8e/	.	4E\	-bi-	.	.	.	.	.	.	.	.
8A\J	.	8a/J	.	8a/J	.	.	.	.	.	.	.	.	.	.	.
!	!	!LO:SIC:v:s=8d#X/L	!	!	!	!	!	!	!	!	!	!	!	!	!
8D#X\L	.	8dnX/L	.	8d#X/L	.	4D#X\	-lan-	.	.	.	.	.	.	.	.
8A\	.	8a/	.	8a/	.	.	.	.	.	.	.	.	.	.	.
8E\	.	8e/	.	8e/	.	4E\	-dum	.	.	.	.	.	.	.	.
8A\J	.	8a/J	.	8a/J	.	.	.	.	.	.	.	.	.	.	.
!LO:LB:g=original	!	!	!	!	!	!	!	!	!	!	!	!	!	!	!
=40	=40	=40	=40	=40	=40	=40	=40	=40	=40	=40	=40	=40	=40	=40	=40
4D\	.	4d/	.	4d/	.	4D\	ac	1ryy	1ryy	.	.	.	.	.	.
4d\	.	4a/	.	4a\ 4ff#	.	8f#\	lae-	.	.	.	.	.	.	.	.
.	.	.	.	.	.	8f#\	-tae	.	.	.	.	.	.	.	.
8c#\L	.	8a\L	.	8a\L 8ee	.	8e\	ju-	.	.	.	.	.	.	.	.
8F#\	.	8a\	.	8a\ 8cc#	.	8c#\	-bi-	.	.	.	.	.	.	.	.
8D\	.	8b\	.	8b\ 8dd	.	8d\L	-lan-	.	.	.	.	.	.	.	.
8E\J	.	8g#X\J	.	8g#X\J 8b	.	8B\J	.	.	.	.	.	.	.	.	.
!	!	!	!	!	!	!LO:LB:g=original	!	!	!	!	!	!	!	!	!
=41	=41	=41	=41	=41	=41	=41	=41	=41	=41	=41	=41	=41	=41	=41	=41
4AA/	.	4c#/	.	4c#/ 4a	.	4A\	-dum	1ryy	1ryy	1r	.	.	.	1r	1r
4d\	.	8a\L	.	4a\ 4ff#	.	8D\	lae	.	.	.	.	.	.	.	.
.	.	8a\J	.	.	.	8f#\	tae	.	.	.	.	.	.	.	.
8c#\L	.	8a\L	.	8a\L 8ee	.	8e\L	ju-	.	.	.	.	.	.	.	.
8F#\	.	8a\	.	8a\ 8cc#	.	8c#\J	-bi-	.	.	.	.	.	.	.	.
8D\	.	8b\	.	8b\ 8dd	.	8d\L	-lan-	.	.	.	.	.	.	.	.
8E\J	.	8g#X\J	.	8g#X\J 8b	.	8B\J	.	.	.	.	.	.	.	.	.
=42	=42	=42	=42	=42	=42	=42	=42	=42	=42	=42	=42	=42	=42	=42	=42
!LO:TX:t=P:problem=mixed beam	!LO:DY:b:t=f&colon;	!	!	!	!	!	!	!	!	!	!	!	!	!	!
8AA/L	f	4c#/	.	4c#/ 4a	.	4A\	-dum	1ryy	1ryy	4Rf/	.	4A\	4e\	4cc#\	4aa\
8A\	.	.	.	.	.	.	.	.	.	.	.	.	.	.	.
!	!	!	!LO:DY:b:t=for	!	!	!	!	!	!	!	!	!	!	!	!
8A\	.	(16ff#\LL	f	(16ff#\LL 16aa	.	4r	.	.	.	4r	.	4r	4r	4r	4r
.	.	16ee\)	.	16ee\) 16gg#X	.	.	.	.	.	.	.	.	.	.	.
8A\J	.	(16dd\	.	(16dd\ 16ff#	.	.	.	.	.	.	.	.	.	.	.
.	.	16cc#\JJ)	.	16cc#\JJ) 16ee	.	.	.	.	.	.	.	.	.	.	.
8A\L	.	4cc#\	.	4cc#'\ 4ee	.	2r	.	.	.	2r	.	2r	2r	2r	2r
8A\	.	.	.	.	.	.	.	.	.	.	.	.	.	.	.
8E\	.	(16f#/LL	.	(16dd\LL	.	.	.	.	.	.	.	.	.	.	.
.	.	16e/)	.	16cc#\)	.	.	.	.	.	.	.	.	.	.	.
8E\J	.	(16d/	.	(16b\	.	.	.	.	.	.	.	.	.	.	.
.	.	16c#/JJ)	.	16a\JJ)	.	.	.	.	.	.	.	.	.	.	.
=43	=43	=43	=43	=43	=43	=43	=43	=43	=43	=43	=43	=43	=43	=43	=43
!LO:TX:t=P:problem=mixed beam	!	!	!	!	!	!	!	!	!	!	!	!	!	!	!
8AA/L	.	4c#/	.	4c#/	.	00r	.	1ryy	1ryy	4Rf/	.	4A\	4e\	4cc#\	4aa\
8A\	.	.	.	.	.	.	.	.	.	.	.	.	.	.	.
8A\	.	(16ff#\LL	.	(16ff#\LL 16aa	.	.	.	.	.	4r	.	4r	4r	4r	4r
.	.	16ee\)	.	(16ee\) 16gg#X	.	.	.	.	.	.	.	.	.	.	.
8A\J	.	(16dd\	.	16dd\) 16ff#	.	.	.	.	.	.	.	.	.	.	.
.	.	16cc#\JJ)	.	16cc#\JJ 16ee	.	.	.	.	.	.	.	.	.	.	.
!	!	!LO:LB:g=original	!	!	!	!	!	!	!	!	!	!	!	!	!
=-	=-	=-	=-	=-	=-	=-	=-	=-	=-	=-	=-	=-	=-	=-	=-
8A\L	.	4cc#\	.	4cc#\ 4ee	.	.	.	.	.	2r	.	2r	2r	2r	2r
8A\	.	.	.	.	.	.	.	.	.	.	.	.	.	.	.
8E\	.	(16f#/LL	.	(16dd\LL	.	.	.	.	.	.	.	.	.	.	.
.	.	16e/)	.	16cc#\)	.	.	.	.	.	.	.	.	.	.	.
8E\J	.	(16d/	.	(16b\	.	.	.	.	.	.	.	.	.	.	.
.	.	16c#/JJ)	.	16a\JJ)	.	.	.	.	.	.	.	.	.	.	.
=44	=44	=44	=44	=44	=44	=44	=44	=44	=44	=44	=44	=44	=44	=44	=44
8AA/L	.	8c#/L	.	8c#|</L	.	.	.	1ryy	1ryy	0r	.	0r	0r	4cc#\	4aa\
8C#/	.	8c#/	.	8c#|</	.	.	.	.	.	.	.	.	.	.	.
8D/	.	8d/	.	8d|</	.	.	.	.	.	.	.	.	.	4r	4r
8E/J	.	8e/J	.	8e|</J	.	.	.	.	.	.	.	.	.	.	.
8F#\L	.	8f#/L	.	8f#|</L	.	.	.	.	.	.	.	.	.	2r	2r
8G#X\	.	8g#X/	.	8g#X|</	.	.	.	.	.	.	.	.	.	.	.
8A\	.	8a/	.	8a|</	.	.	.	.	.	.	.	.	.	.	.
8B\J	.	8b/J	.	8b|</J	.	.	.	.	.	.	.	.	.	.	.
!	!	!	!	!	!	!	!	!	!	!	!	!	!	!	!LO:LB:g=original
=45	=45	=45	=45	=45	=45	=45	=45	=45	=45	=45	=45	=45	=45	=45	=45
!	!	!	!	!	!	!	!	!	!	!	!	!	!	!	!LO:TX:a:t=2
8c#\L	.	8cc#/L	.	8cc#/L	.	.	.	1ryy	1ryy	.	.	.	.	0r	0r
!	!	!	!	!LO:SIC:v:s=8g#/	!	!	!	!	!	!	!	!	!	!	!
8G#X\	.	8g#X/	.	8g/	.	.	.	.	.	.	.	.	.	.	.
8A\	.	8a/	.	8a/	.	.	.	.	.	.	.	.	.	.	.
8C#\J	.	8c#/J	.	8c#/J	.	.	.	.	.	.	.	.	.	.	.
!	!	!	!	!LO:LB:g=original	!	!	!	!	!	!	!	!	!	!	!
=-	=-	=-	=-	=-	=-	=-	=-	=-	=-	=-	=-	=-	=-	=-	=-
4D\	.	8.d/L	.	8.d/L	.	.	.	.	.	.	.	.	.	.	.
.	.	32c#/LL	.	32c#/LL	.	.	.	.	.	.	.	.	.	.	.
.	.	32d/JJJ	.	32d/JJJ	.	.	.	.	.	.	.	.	.	.	.
!LO:TX:t=P:problem=mixed beam	!	!	!	!LO:N:vis=4	!	!	!	!	!	!	!	!	!	!	!
8E\L	.	8e/L	.	8e/	.	.	.	.	.	.	.	.	.	.	.
!	!	!	!	!LO:N:vis=4	!	!	!	!	!	!	!	!	!	!	!
8EE/J	.	8e/J	.	8e/	.	.	.	.	.	.	.	.	.	.	.
=46	=46	=46	=46	=46	=46	=46	=46	=46	=46	=46	=46	=46	=46	=46	=46
2AA/	.	2c#/	.	2c#/	.	.	.	1ryy	1ryy	2Rf/	.	1r	1r	.	.
2r	.	2r	.	2r	.	.	.	.	.	2r	.	.	.	.	.
==	==	==	==	==	==	==	==	==	==	==	==	==	==	==	==
*-	*-	*-	*-	*-	*-	*-	*-	*-	*-	*-	*-	*-	*-	*-	*-
!!!system-decoration: [(s1,s2)][(s3,s4)]s5[(s6,s7,s8)][(s9,s10,s11)]
!!!RDF**kern: < = below
!!!RDF**kern: > = above
!!!RDF**kern: | = vertical stroke
!!!ENC: Marcin Jachim
!!!END: 2020-10-06
!!!ENC: Marta Chmielewska
!!!END: 2022-01-28
!!!YEC: Copyright 2022 Narodowy Instytut Fryderyka Chopina (https://polishscores.org)
!!!YEM: License CC-BY-4.0 (https://creativecommons.org/licenses/by/4.0)
